src/actions/22/tools-media-optical-burn.svg

<svg xmlns="http://www.w3.org/2000/svg" viewBox="0 0 22 22">
  <defs id="defs3051">
    <style type="text/css" id="current-color-scheme">
      .ColorScheme-Text {
        color:#363636;
      }
      </style>
  </defs>
 <path 
    style="fill:currentColor;fill-opacity:1;stroke:none" 
    d="M 11 3 C 6.568 3 3 6.568 3 11 C 3 15.432 6.568 19 11 19 C 11.692084 19 12.360349 18.903948 13 18.740234 L 13 17.707031 C 12.366247 17.894565 11.696167 18 11 18 C 7.122 18 4 14.878 4 11 C 4 7.122 7.122 4 11 4 C 14.878 4 18 7.122 18 11 C 18 11.696167 17.894565 12.366247 17.707031 13 L 18.740234 13 C 18.903948 12.360349 19 11.692084 19 11 C 19 6.568 15.432 3 11 3 z M 11 5 C 7.676004 5 5 7.676 5 11 L 8 11 C 8 9.338 9.3380018 8 11 8 L 11 5 z M 11 9 C 9.8920013 9 9 9.892 9 11 C 9 12.108 9.8920013 13 11 13 C 12.107999 13 13 12.108 13 11 C 13 9.892 12.107999 9 11 9 z M 11 10 C 11.553999 10 12 10.446 12 11 C 12 11.554 11.553999 12 11 12 C 10.446001 12 10 11.554 10 11 C 10 10.446 10.446001 10 11 10 z M 14 11 C 14 11.352948 13.931268 11.687647 13.818359 12 L 16.910156 12 C 16.966308 11.675132 17 11.341682 17 11 L 14 11 z M 15.404297 13.041016 C 16.317305 13.226916 17 14.0305 17 15 C 17 15.5815 16.751059 16.100144 16.357422 16.464844 C 16.137081 16.203944 16 15.8698 16 15.5 C 16 15.4182 16.012911 15.339719 16.025391 15.261719 C 15.415754 15.603619 15 16.2486 15 17 C 15 18.108 15.892005 19 17 19 C 18.107995 19 19 18.108 19 17 C 19 14.9225 17.426169 13.245216 15.404297 13.041016 z M 13 13.224609 C 12.469123 13.70179 11.773296 14 11 14 L 11 17 C 11.703343 17 12.373894 16.872755 13 16.652344 L 13 13.224609 z "
    class="ColorScheme-Text"
    />  
</svg>

<svg xmlns="http://www.w3.org/2000/svg" viewBox="0 0 22 22">
    <path d="M11 3c-4.432 0-8 3.568-8 8a7.982 7.982 0 0 0 10 7.74v-1.033A7.034 7.034 0 0 1 11 18c-3.878 0-7-3.122-7-7s3.122-7 7-7 7 3.122 7 7c0 .696-.105 1.366-.293 2h1.033A7.982 7.982 0 0 0 11 3zm0 2c-3.324 0-6 2.676-6 6h3c0-1.662 1.338-3 3-3V5zm0 4c-1.108 0-2 .892-2 2s.892 2 2 2 2-.892 2-2-.892-2-2-2zm0 1c.554 0 1 .446 1 1s-.446 1-1 1-1-.446-1-1 .446-1 1-1zm3 1c0 .353-.069.688-.182 1h3.092c.056-.325.09-.658.09-1h-3zm1.404 2.041a1.995 1.995 0 0 1 .953 3.424A1.489 1.489 0 0 1 16 15.5c0-.082.013-.16.025-.238A1.996 1.996 0 0 0 17 19c1.108 0 2-.892 2-2a3.976 3.976 0 0 0-3.596-3.959zM13 13.225A2.979 2.979 0 0 1 11 14v3c.703 0 1.374-.127 2-.348v-3.427z" style="fill:currentColor;fill-opacity:1;stroke:none;color:#050505;opacity:.7"/>
</svg>
